X:1
T:Title
%%score { 1 | 2 }
L:1/8
Q:1/4=94
M:4/4
K:Ab
V:1 treble nm="Grand Piano"
V:2 bass 
V:1
 (3[CE][CF][CG] [CA]>[DB] [Ec]2 d>G | B4 [CA]4 | (3[DF][EG][FA] [FB]>[Fc] [Fd]2 [Fc]>[FB] | %3
w: Elisha~A.~Hoffman * * * * * * *|||
 [EA]4 [EG]4 | (3[Ec][Ec][Ec] [Ec]>[Ec] [Ee]2 [_Ge]>[Ge] | [Fd]4 F4 | (3GGG G>G G2 A>B | [CA]6 z2 | %8
w: |||||
 (3[Ec][Ec][Ec] (3[Ec][Ec][Ec] [Ec]2 [Ec]>[Ec] | [Ee]4 B4 | (3AAA (3AAA A2 A>A | [=Ec]4 [EG]4 | %12
w: ||||
 (3FFF F>F [FA]2 [EG]>[DF] | [CE]4 [CA]4 | (3GGG (3GGG G2 A>B | [CA]6 z2 |] %16
w: ||||
V:2
 (3[A,,A,][A,,A,][A,,A,] [A,,A,]>[A,,A,] [A,,A,]2 [E,G,E]>[E,B,E] | [E,G,D]4 [A,,A,]4 | %2
 (3[D,A,][D,A,][D,D] [D,B,]>[C,=A,] [B,,B,]2 [C,_A,]>[D,B,] | [E,C]4 [E,B,]4 | %4
 (3[A,,A,][A,,A,][A,,A,] [A,,A,]>[A,,A,] [C,A,]2 [C,A,]>[C,A,] | [D,A,]4 [D,B,D]4 | %6
 (3[E,B,D][E,B,D][E,B,D] [E,B,D]>[E,B,D] [E,B,D]2 [E,A,C]>[E,G,D] | [A,,A,]6 z2 | %8
 (3[A,,A,][A,,A,][A,,A,] (3[A,,A,][A,,A,][A,,A,] [A,,A,]2 [A,,A,]>[A,,A,] | [B,,G,]4 [E,G,E]4 | %10
 (3[F,C][F,C][F,C] (3[F,C][F,C][F,C] [F,C]2 [F,C]>[F,C] | [C,G,]4 [C,C]4 | %12
 (3[D,A,D][D,A,D][D,A,D] [D,A,D]>[D,A,D] [D,A,]2 [D,A,]>[D,A,] | [A,,A,]4 [A,,A,]4 | %14
 (3[E,B,D][E,B,D][E,B,D] (3[E,B,D][E,B,D][E,B,D] [E,B,D]2 [E,A,C]>[E,G,D] | [A,,A,]6 z2 |] %16

